src/assets/duotone/Hierarchy.svg

<svg width="24" height="24" viewBox="0 0 24 24"  xmlns="http://www.w3.org/2000/svg">
<path d="M5.25 8.5C7.04493 8.5 8.5 7.04493 8.5 5.25C8.5 3.45507 7.04493 2 5.25 2C3.45507 2 2 3.45507 2 5.25C2 7.04493 3.45507 8.5 5.25 8.5Z" />
<path d="M5 22C6.65685 22 8 20.6569 8 19C8 17.3431 6.65685 16 5 16C3.34315 16 2 17.3431 2 19C2 20.6569 3.34315 22 5 22Z" />
<path d="M19 22C20.6569 22 22 20.6569 22 19C22 17.3431 20.6569 16 19 16C17.3431 16 16 17.3431 16 19C16 20.6569 17.3431 22 19 22Z" />
<path opacity="0.4" d="M19.17 15.9802C18.2 13.2002 15.58 11.3302 12.63 11.3302C12.62 11.3302 12.61 11.3302 12.6 11.3302L9.07 11.3402C7.55 11.3602 6.19 10.3302 5.78 8.85023V7.00023C5.78 6.58023 5.44 6.24023 5.01 6.24023C4.58 6.24023 4.25 6.58023 4.25 7.00023V18.2202C4.25 18.6402 4.59 18.9802 5.01 18.9802C5.43 18.9802 5.78 18.6402 5.78 18.2202V11.6002C6.66 12.3802 7.81 12.8602 9.06 12.8602C9.07 12.8602 9.07 12.8602 9.08 12.8602L12.61 12.8502C12.62 12.8502 12.62 12.8502 12.63 12.8502C14.92 12.8502 16.97 14.3002 17.72 16.4702C17.83 16.7902 18.13 16.9802 18.44 16.9802C18.52 16.9802 18.61 16.9702 18.69 16.9402C19.1 16.8202 19.31 16.3802 19.17 15.9802Z" />
</svg>

<?xml version="1.0" encoding="UTF-8"?>
<svg width="24" height="24" viewBox="0 0 24 24" xmlns="http://www.w3.org/2000/svg">
 <path d="m5.25 8.5c1.7949 0 3.25-1.4551 3.25-3.25s-1.4551-3.25-3.25-3.25-3.25 1.4551-3.25 3.25 1.4551 3.25 3.25 3.25z"/>
 <path d="m5 22c1.6568 0 3-1.3431 3-3s-1.3432-3-3-3-3 1.3431-3 3 1.3432 3 3 3z"/>
 <path d="m19 22c1.6569 0 3-1.3431 3-3s-1.3431-3-3-3-3 1.3431-3 3 1.3431 3 3 3z"/>
 <path d="m19.17 15.98c-0.97-2.78-3.59-4.65-6.54-4.65h-0.03l-3.53 0.01c-1.52 0.02-2.88-1.01-3.29-2.49v-1.85c0-0.42-0.34-0.76-0.77-0.76s-0.76 0.34-0.76 0.76v11.22c0 0.42 0.34 0.76 0.76 0.76s0.77-0.34 0.77-0.76v-6.62c0.88 0.78 2.03 1.26 3.28 1.26h0.02l3.53-0.01h0.02c2.29 0 4.34 1.45 5.09 3.62 0.11 0.32 0.41 0.51 0.72 0.51 0.08 0 0.17-0.01 0.25-0.04 0.41-0.12 0.62-0.56 0.48-0.96z" opacity=".4"/>
</svg>
